X: 27308
T: Missing, The
R: reel
M: 4/4
K: Cmajor
EGGE GAcd|e2ed cAAG|EGGE GAcd|dcde c3d|
eGGE GAcd|e2ed cAA2|EGGE GAcd|dcde c2g=f||
egge g2c'a|g2ec dcAc|egge g2c'a|g2eg a3g|
egge g2c'a|g2ec decd|eGGE GAcd|e2ed c2g=f||

